X: 20372
Q: "With Spirit."
M: 2/4
L: 1/16
K: D
|:\
d3dd2d2 | d3dd2f2 | e3dc2B2 | A2^G2A2=G2 |\
|:\
ffff f2z2 | ffff f2a2 | g3fe2d2 | e3cA2G2 |\


